X: 37123
T: Since First I Saw Your Face
R: waltz
M: 3/4
K: Dmajor
D2 D3 E|F2 G2 A2|GF E2 B2|A2 A2 G2|F2 E4|D6|
D2 D3 E|F2 G2 A2|GF E2 B2|A2 A2 G2|F2 E4|D6||
F2 B2 B2|^G2 E2 A2|A2 F2 A2|d2 d2 d2|c2 B4|A6|
B4 G2|A4 F2|G4 E2|F4 B2|A2 A2 G2|F2 E4|D6||

